X: 71
T: MISS INNES
%R: reel
B: Jean White "100 Popular Hornpipes, Reels, Jigs and Country Dances", Boston 1880 p.30
F: http://www.loc.gov/resource/sm1880.09124.0#seq-1
Z: 2014 John Chambers <jc:trillian.mit.edu>
M: C|
L: 1/8
K: Em
% - - - - - - - - - - - - - - - - - - - - - - - - - - - - -
|:\
EB, E/E/E {d}e2B<d | FDFd FDDF | EB, E/E/E {d}e2Bd | FDTdF E/E/E E2 :|
ebge Bge^d  | eB~dA FDDF | ebge bege | Bgf^d e/e/e e>f |
ebge bege | FA~dA FDDF | EB, E/E/E {d}e2 Bd | FDTdF E/E/E E2 H|]
% - - - - - - - - - - - - - - - - - - - - - - - - - - - - -

%%sep 1 1 500
%%sep 1 1 500
